src/status/symbolic/status-regular-symbolic.svg

<?xml version="1.0" encoding="UTF-8"?>
<svg width="16" height="16" version="1.1" xmlns="http://www.w3.org/2000/svg">
 <path d="m2 1c-1.108 0-2 0.892-2 2v10c0 1.108 0.892 2 2 2h12c1.108 0 2-0.892 2-2v-10c0-1.108-0.892-2-2-2h-12zm0 1h12c0.554 0 1 0.446 1 1v10c0 0.554-0.446 1-1 1h-12c-0.554 0-1-0.446-1-1v-10c0-0.554 0.446-1 1-1zm2.1719 3.1719-0.70703 0.70703 2.1211 2.1211-2.1211 2.1211 0.70703 0.70703 2.8281-2.8281-2.8281-2.8281zm2.8281 4.8281v1h4v-1h-4z" fill="#363636"/>
</svg>

<svg xmlns="http://www.w3.org/2000/svg" width="16" height="16">
    <path fill="#050505" fill-opacity=".7" d="M2 1C.892 1 0 1.892 0 3v10c0 1.108.892 2 2 2h12c1.108 0 2-.892 2-2V3c0-1.108-.892-2-2-2H2zm0 1h12c.554 0 1 .446 1 1v10c0 .554-.446 1-1 1H2c-.554 0-1-.446-1-1V3c0-.554.446-1 1-1zm2.172 3.172-.707.707L5.586 8l-2.121 2.121.707.707L7 8 4.172 5.172zM7 10v1h4v-1H7z"/>
</svg>
